X:6
T:Drunken Bass Drummer
C:Roy Watrous, 1959
S:The Watrous Book, 1992
M:2/4
L:1/16
Q:1/4=90
K:D
%%MIDI program 72
%%MIDI transpose 8
%%MIDI ratio 3 1
A2|d2f2 e2g2|fa2f d4|cBcd e2A2|defg a2A2|dz2f ez fg|
fgaf d2ef|gAfA eABc|d2f2 d2::dc|B2 Tf6|gAfA e2cd|eAeA fAaA|
gagf efdc|Bz2c dz ef|gAfA e2fg afeg fedc|B6 fb:|]

